Adwaita++/apps/scalable/github.svg

<svg enable-background="new" height="128" viewBox="0 0 128 128" width="128" xmlns="http://www.w3.org/2000/svg">
  <g transform="translate(0 -172)">
    <path d="m123.99993 237a59.999995 59.999995 0 0 1 -59.999985 60 59.999995 59.999995 0 0 1 -60.0000069-60 59.999995 59.999995 0 0 1 60.0000069-59.99999 59.999995 59.999995 0 0 1 59.999985 59.99999z" fill="#deddda"/>
    <rect fill="#d5d3cf" height="114" rx="56" width="112" x="8" y="179"/>
    <path d="m123.99993 235a59.999995 59.999995 0 0 1 -59.999985 59.99999 59.999995 59.999995 0 0 1 -60.0000069-59.99999 59.999995 59.999995 0 0 1 60.0000069-60 59.999995 59.999995 0 0 1 59.999985 60z" fill="#f6f5f4"/>
    <circle cx="64" cy="235" fill="#241f31" r="54"/>
    <path d="m64.000045 181a54 54 0 0 0 -54 54 54 54 0 0 0 .0415 1.1709 54 54 0 0 1 53.9585-53.1709 54 54 0 0 1 53.958495 52.82813 54 54 0 0 0 .0415-.82813 54 54 0 0 0 -54.000005-54z" opacity=".1"/>
    <path d="m95.255393 199.12069c-1.82612-.0853-6.971506.52461-15.013491 6.11926-4.498937-1.35661-9.634561-1.85878-14.988384-1.84583-4.897695.0103-9.97652.4131-14.913041 1.84583-8.044561-5.59436-12.155935-6.20123-13.983854-6.11508-.609447.0287-.904077.12124-.904077.12124-3.058258 7.93356-1.123353 13.80282-.544118 15.26043-3.592665 4.02706-5.700691 9.16972-5.700691 15.46137 0 22.08847 14.31221 27.03627 26.783206 28.49089-1.603256 1.44026-2.61213 4.41817-3.122406 8.14087-3.199607 1.47561-11.782602 5.08704-16.792346-3.72094 0 0-2.963857-5.53673-8.601263-5.94346 0 0-5.480435-.0707-.380883 3.50329 0 0 3.681424 1.77386 6.236439 8.43385 0 0 3.794326 10.13725 19.416673 6.65498.01565 2.70458.02857 7.746.04185 12.62356 3.473777.62103 7.048867.96268 10.706588.96268 5.961636 0 11.707782-.87331 17.135558-2.47783.01607-5.94684.03349-12.96973.03349-17.54574 0-5.37533-2.222218-8.8932-4.235757-10.67311 12.508699-1.42607 25.640544-6.30401 25.640544-28.44904 0-6.29165-1.74971-11.43854-5.349097-15.46554.57581-1.45797 2.50844-7.32269-.55668-15.25626 0 0-.29535-.0971-.90407-.12562z" fill="#f6f5f4"/>
  </g>
</svg>

<?xml version="1.0" encoding="UTF-8" standalone="no"?>
<svg
   xmlns:dc="http://purl.org/dc/elements/1.1/"
   xmlns:cc="http://creativecommons.org/ns#"
   xmlns:rdf="http://www.w3.org/1999/02/22-rdf-syntax-ns#"
   xmlns:svg="http://www.w3.org/2000/svg"
   xmlns="http://www.w3.org/2000/svg"
   xmlns:xlink="http://www.w3.org/1999/xlink"
   xmlns:sodipodi="http://sodipodi.sourceforge.net/DTD/sodipodi-0.dtd"
   xmlns:inkscape="http://www.inkscape.org/namespaces/inkscape"
   style="enable-background:new"
   width="128"
   height="128"
   version="1.0"
   viewBox="0 0 128 128"
   id="svg37"
   sodipodi:docname="github.svg"
   inkscape:version="0.92.3 (2405546, 2018-03-11)">
  <metadata
     id="metadata41">
    <rdf:RDF>
      <cc:Work
         rdf:about="">
        <dc:format>image/svg+xml</dc:format>
        <dc:type
           rdf:resource="http://purl.org/dc/dcmitype/StillImage" />
      </cc:Work>
    </rdf:RDF>
  </metadata>
  <sodipodi:namedview
     pagecolor="#ffffff"
     bordercolor="#666666"
     borderopacity="1"
     objecttolerance="10"
     gridtolerance="10"
     guidetolerance="10"
     inkscape:pageopacity="0"
     inkscape:pageshadow="2"
     inkscape:window-width="1505"
     inkscape:window-height="959"
     id="namedview39"
     showgrid="false"
     inkscape:zoom="1.84375"
     inkscape:cx="2.440678"
     inkscape:cy="64"
     inkscape:window-x="0"
     inkscape:window-y="34"
     inkscape:window-maximized="0"
     inkscape:current-layer="layer9" />
  <title
     id="title4162">
  Adwaita Icon Template
 </title>
  <defs
     id="defs21">
    <linearGradient
       id="linearGradient950">
      <stop
         style="stop-color:#9a9996"
         id="stop946"
         offset="0" />
      <stop
         style="stop-color:#77767b"
         id="stop948"
         offset="1" />
    </linearGradient>
    <linearGradient
       id="linearGradient1001"
       x1="1660.857"
       x2="1662.99"
       y1="806.297"
       y2="812.882"
       gradientTransform="matrix(1.8293937,-0.81599442,0.81599442,1.8293937,-3645.9624,100.02949)"
       gradientUnits="userSpaceOnUse"
       xlink:href="#linearGradient950" />
    <filter
       id="filter913"
       width="1.046"
       height="1.05"
       x="-.02"
       y="-.03"
       style="color-interpolation-filters:sRGB">
      <feGaussianBlur
         id="feGaussianBlur17"
         stdDeviation="2.32" />
    </filter>
    <filter
       id="filter4569"
       width="1.023"
       height="1.025"
       x="-.01"
       y="-.01"
       style="color-interpolation-filters:sRGB">
      <feGaussianBlur
         id="feGaussianBlur14"
         stdDeviation="1.16" />
    </filter>
    <linearGradient
       id="linearGradient1108"
       x1="296"
       x2="296"
       y1="-212"
       y2="236"
       gradientUnits="userSpaceOnUse">
      <stop
         style="stop-color:#ffffff"
         id="stop2"
         offset="0" />
      <stop
         style="stop-color:#ffffff;stop-opacity:.09803922"
         id="stop4"
         offset=".125" />
      <stop
         style="stop-color:#000000;stop-opacity:.09803922"
         id="stop6"
         offset=".925" />
      <stop
         style="stop-color:#000000;stop-opacity:.49803922"
         id="stop8"
         offset="1" />
    </linearGradient>
    <clipPath
       id="clipPath1082-3-2">
      <path
         style="fill:#8c59d9"
         d="M 361.9375,-212 C 507.2348,-212 528,-191.28677 528,-46.125 V 70.125 C 528,215.28618 507.2348,236 361.9375,236 H 214.0625 C 68.7652,236 48,215.28618 48,70.125 V -46.125 C 48,-191.28677 68.7652,-212 214.0625,-212 Z"
         id="path16" />
    </clipPath>
    <filter
       id="filter953"
       width="1.096"
       height="1.096"
       x="-.05"
       y="-.05"
       style="color-interpolation-filters:sRGB">
      <feGaussianBlur
         id="feGaussianBlur20"
         stdDeviation="1.75" />
    </filter>
  </defs>
  <g
     id="layer1"
     transform="translate(0,-172)">
    <g
       id="layer9">
      <path
         d="M 123.99993,237 A 59.999995,59.999995 0 0 1 63.999945,297 59.999995,59.999995 0 0 1 3.9999381,237 59.999995,59.999995 0 0 1 63.999945,177.00001 59.999995,59.999995 0 0 1 123.99993,237 Z"
         style="fill:#deddda"
         id="path23" />
      <rect
         style="fill:#d5d3cf"
         width="112"
         height="114"
         x="8"
         y="179"
         rx="56"
         ry="56"
         id="rect25" />
      <path
         style="fill:#f6f5f4"
         d="M 123.99993,235 A 59.999995,59.999995 0 0 1 63.999945,294.99999 59.999995,59.999995 0 0 1 3.9999381,235 59.999995,59.999995 0 0 1 63.999945,175 59.999995,59.999995 0 0 1 123.99993,235 Z"
         id="path27" />
      <circle
         style="fill:#241f31;fill-opacity:1"
         cx="64"
         cy="235"
         r="54"
         id="circle29" />
      <path
         d="m 64.000045,181 a 54,54 0 0 0 -54,54 54,54 0 0 0 0.0415,1.1709 A 54,54 0 0 1 64.000045,183 54,54 0 0 1 117.95854,235.82813 54,54 0 0 0 118.00004,235 54,54 0 0 0 64.000035,181 Z"
         style="opacity:0.1"
         id="path31" />
      <path
         style="fill:#f6f5f4"
         d="m 95.255393,199.12069 c -1.82612,-0.0853 -6.971506,0.52461 -15.013491,6.11926 -4.498937,-1.35661 -9.634561,-1.85878 -14.988384,-1.84583 -4.897695,0.0103 -9.97652,0.4131 -14.913041,1.84583 -8.044561,-5.59436 -12.155935,-6.20123 -13.983854,-6.11508 -0.609447,0.0287 -0.904077,0.12124 -0.904077,0.12124 -3.058258,7.93356 -1.123353,13.80282 -0.544118,15.26043 -3.592665,4.02706 -5.700691,9.16972 -5.700691,15.46137 0,22.08847 14.31221,27.03627 26.783206,28.49089 -1.603256,1.44026 -2.61213,4.41817 -3.122406,8.14087 -3.199607,1.47561 -11.782602,5.08704 -16.792346,-3.72094 0,0 -2.963857,-5.53673 -8.601263,-5.94346 0,0 -5.480435,-0.0707 -0.380883,3.50329 0,0 3.681424,1.77386 6.236439,8.43385 0,0 3.794326,10.13725 19.416673,6.65498 0.01565,2.70458 0.02857,7.746 0.04185,12.62356 3.473777,0.62103 7.048867,0.96268 10.706588,0.96268 5.961636,0 11.707782,-0.87331 17.135558,-2.47783 0.01607,-5.94684 0.03349,-12.96973 0.03349,-17.54574 0,-5.37533 -2.222218,-8.8932 -4.235757,-10.67311 12.508699,-1.42607 25.640544,-6.30401 25.640544,-28.44904 0,-6.29165 -1.74971,-11.43854 -5.349097,-15.46554 0.57581,-1.45797 2.50844,-7.32269 -0.55668,-15.25626 0,0 -0.29535,-0.0971 -0.90407,-0.12562 z"
         id="path33" />
    </g>
  </g>
</svg>
